X: 8
P: Andet Brujstyk'
O: trad S\onderho
R: S\onderhoning
N: Bridal tune
M: 2/4
L: 1/16
K: Bm
|: "Bm"d2d2 B2d2 \
| "A"c2cc c2Bc \
| "G"d2B2 B2Bc \
| "A"B2A2 A4 \
|| "Bm"d2d2 B2d2 \
| "A"c2cc c2Bc |
| "G"d2B2 B2Bc \
| "A"B2A2 A4  \
|| "D"d2d2 e2f2 \
| "G"g3f "D"f2ed \
| "A7"c2d2 e2f2 \
| "Em"g3f "Bm"f2ed \
| "A"c2A2 ABc2 |
| "D"d2d2 A2AB \
|| A2d2 e2f2 \
| "G"g3f "D"f2ed \
| "A7"c2d2 e2f2 \
| "Em"g3f "Bm"f2ed \
| "A7"c2A2 ABc2 :| \
"D"Hd8 |]
